!!!COM:	Martini, Johannes
!!!CDT:	~1440///-~1497//
!!!OTL:	Iste confessor
!!!AGN:	Motet
!!!SCT:	Mar2054
!!!SCA:	Mar2054
!!!voices:	3
**kern	**kern	**kern
*staff3	*staff2	*staff1
*Ivox	*Ivox	*Ivox
*I"Tenor	*I"Contra	*I"Superius
*I'T	*I'C	*I'S
*clefF4	*clefGv2	*clefG2
*k[]	*k[]	*k[]
*M3/1	*M3/1	*M3/1
*met(O|)	*met(O|)	*met(O|)
!!section: Iste confessor
!!!OMD: Iste confessor
=1-	=1-	=1-
1G	0.r	0.r
1A	.	.
2G\	.	.
[2E\	.	.
=2	=2	=2
4E\]	0.r	1g
4F\	.	.
1G	.	.
.	.	1a
2F#i\	.	.
1G	.	2g/
.	.	[2e/
=3	=3	=3
1G	1r	4e/]
.	.	4f/
.	.	1g
1D	1d	.
.	.	2f#i/
1r	1e	1g
=4	=4	=4
1r	2d\	2f/
.	2.B\	2.d/
1r	.	.
.	4c\	4e/
.	1d	4f/
.	.	4g/
1A	.	2a/
.	2c\	2cc\
=5	=5	=5
1G	2d\	2b\
.	2B\	1dd
1A	2.c\	.
.	.	2cc\
.	4B\	.
1B	2.G/	2b\
.	.	[2g/
.	4F/	.
=6	=6	=6
1.c	4E/	2g/]
.	4D/	.
.	1F	2.a/
.	.	4g/
2B\	2G/	1g
1A	1D	.
.	.	2f#i/
=7	=7	=7
0.G	2r	0g
.	2d\	.
.	2e\	.
.	2d\	.
.	2.g\	1r
.	4f\	.
=8	=8	=8
0.r	4e\	1cc
.	4d\	.
.	2.c\	.
.	.	1a
.	4B\	.
.	2.A/	.
.	.	2cc\
.	4B\	.
.	4c\	4b\
.	4d\	4a/
=9	=9	=9
1c	1e	1g
1A	2f\	2a/
.	1e	2.cc\
2c\	.	.
.	.	4b\
4B\	2d\	[2dd\
4A\	.	.
=10	=10	=10
1G	1g	4dd\]
.	.	4cc\
.	.	1b
2A\	2f\	.
2c\	1e	1a
1B	.	.
.	2d\	2g#i/
=11	=11	=11
1A	1e	2a/
.	.	2r
1r	1f	1a
2r	2e\	2g/
[2A\	[2c\	2e/
=12	=12	=12
2A\]	2c\]	2f/
2G\	2d\	1g
2E\	2e\	.
2F\	1d	2a/
1G	.	2g/
.	2g\	2b\
=13	=13	=13
2A\	2e\	2cc\
2G\	2.g\	1dd
2B\	.	.
.	4f\	.
2c\	4e\	2cc\
.	4d\	.
2d\	2g\	2b\
4c\	4e\	4a/
4B\	4d\	4g/
=14	=14	=14
1A	2.c\	2.f#i/
.	4B\	4e/
0G	1d	1g
.	2B\	1r
.	4c\	.
.	4d\	.
=15	=15	=15
1r	2e\	1g
.	4d\	.
.	4c\	.
1G	1B	2e/
.	.	2.g/
2.E\	2.G/	.
.	.	4f/
.	.	4e/
4F\	4A/	4d/
=16	=16	=16
2.G\	2.B\	2e/
.	.	4d/
4F\	4A/	4c/
2G\	2B\	2B/
2E\	2G/	1c
1D	2A/	.
.	2F/	2B/
=17	=17	=17
1C	1G	0c
1r	1A	.
2.G\	2G/	1r
.	[2B\	.
4F\	.	.
=18	=18	=18
2G\	2B\]	1r
2A\	2c\	.
2F\	2d\	2r
2G\	1e	2.g/
2c\	.	.
.	.	4f/
2B\	2d\	2g/
=19	=19	=19
1A	2e\	2a/
.	2c\	2f/
2G\	2B\	2g/
2A\	2A/	2cc\
2G\	2B\	2b\
[2F\	[2c\	[2a/
=20	=20	=20
2F\]	4c\]	2a/]
.	4B\	.
2G\	4A/	1g
.	4G/	.
1D	1A	.
.	.	2f#i/
2G\	2r	2b\
2F\	[2d\	2a/
=21	=21	=21
2G\	2d\]	2b\
2.A\	4c\	2.cc\
.	4B\	.
.	2.A/	.
4B\	.	4b\
2.c\	.	4a/
.	4G/	4g/
.	2F/	2a/
4B\	.	.
4A\	2E/	[2g/
4G\	.	.
=22	=22	=22
1A	1D	2g/]
.	.	2f#i/
0Gl	0dl	0gl
==	==	==
*-	*-	*-
!!!RDF**kern: l=long note in original notation
!!!RDF**kern: i=editorial accidental
!!!ENC:	Chris Gage 08-19-2014
!!!END:	2014/10/05/
!!!EED:	Jesse Rodin
!!!EEV:	2014/10/18/
!!!ONB:	Translated from MusicXML and edited on 2014/10/18/ by Craig Sapp
!!muse2ps: C^@{COM}^i2I150v85,85,150Q16
